X:1
T:Redio-Tedio
M:4/4
L:1/8
K:C
 G| G2 Bc d2 dd| d2 g2 d4| cc cc c2 AA| B2 B2 B3 B| G2 B2 d2 d2| d2 g2 d4|\
 cA A2 BG G2| dd d2 BG G2| dd dd d2 cc| B2 A2 G3||
